X:28
T:Sudbury Downs
R:reel
C:Dougie MacDonald
O:20th century Cape Breton
N:Bookings,Mechanicals etc.
N:..... Dougie MacDonald <dougie@cranfordpub.com>
N:More tunes and information <http://www.cranfordpub.com/dougie>
Z:This abc transcription is for personal use only,
Z:provided this notice remains attached.
Z:Used by permission of the composer
Z:Paul Stewart Cranford 
Q:333
L:1/8
M:C|
K:G
z2|G2 DC B,G,B,D|GBge dBGB|AA, A,/A,/A, CA,A,B,|CEAG FADF|!
G2 DC B,G,B,D|GBge dBGB|AE E/E/E cBAG|FDEF G2:|!
|:ef|g/g/g gd BGGA|Bdaf gdBG|A/A/A AB cAag|fde^c defa|!
g/g/g gd BGGA|Bdaf gdBG|cA A/A/A ceag|fdef g2:|!
